X: 29
T:AN DRO PIED
M:4/4
L:1/4
Q:1/4=100
C:Yves BELOTTEAU
K:C
|:A B/2c/2B3/2A/2|GFE2|1A B/2c/2d/2c/2B/2A/2|Gdec:|2A B/2c/2d/2c/2d/2e/2
|cBA2|!
|:A c/2e/2 a z/2a/2|a g/2f/2e2|g e/2c/2B B/2c/2|1d c/2d/2 ec:|2d c/2B/2 
A2|!
